package/converter/svg/duotone/arrow-right-to-bracket.svg

<svg xmlns="http://www.w3.org/2000/svg" viewBox="0 0 512 512"><!-- Font Awesome Pro 6.0.0-alpha2 by @fontawesome - https://fontawesome.com License - https://fontawesome.com/license (Commercial License) --><defs><style>.fa-secondary{opacity:.4}</style></defs><path d="M416 32H352C334.326 32 320 46.328 320 64S334.326 96 352 96H416C433.674 96 448 110.328 448 128V384C448 401.672 433.674 416 416 416H352C334.326 416 320 430.328 320 448S334.326 480 352 480H416C469.02 480 512 437.02 512 384V128C512 74.98 469.02 32 416 32Z" class="fa-secondary"/><path d="M342.625 278.625L214.625 406.625C202.125 419.125 181.875 419.125 169.375 406.625S156.875 373.875 169.375 361.375L242.75 288H32C14.312 288 0 273.688 0 256S14.312 224 32 224H242.75L169.375 150.625C156.875 138.125 156.875 117.875 169.375 105.375C181.867 92.883 202.117 92.867 214.625 105.375L342.625 233.375C355.125 245.875 355.125 266.125 342.625 278.625Z" class="fa-primary"/></svg>

<svg xmlns="http://www.w3.org/2000/svg" viewBox="0 0 512 512"><!--! Font Awesome Pro 6.6.0 by @fontawesome - https://fontawesome.com License - https://fontawesome.com/license (Commercial License) Copyright 2024 Fonticons, Inc. --><defs><style>.fa-secondary{opacity:.4}</style></defs><path class="fa-secondary" d="M320 64c0 17.7 14.3 32 32 32l64 0c17.7 0 32 14.3 32 32l0 256c0 17.7-14.3 32-32 32l-64 0c-17.7 0-32 14.3-32 32s14.3 32 32 32l64 0c53 0 96-43 96-96l0-256c0-53-43-96-96-96l-64 0c-17.7 0-32 14.3-32 32z"/><path class="fa-primary" d="M342.6 278.6c12.5-12.5 12.5-32.8 0-45.3l-128-128c-12.5-12.5-32.8-12.5-45.3 0s-12.5 32.8 0 45.3L242.7 224 32 224c-17.7 0-32 14.3-32 32s14.3 32 32 32l210.7 0-73.4 73.4c-12.5 12.5-12.5 32.8 0 45.3s32.8 12.5 45.3 0l128-128z"/></svg>
